X: 5178
T: Brisk Bob
R: strathspey
M: 4/4
K: Bminor
c/|:d>B f>B F<B B>c|c>d B/c/d e<c A>c|d/c/B f>B F<B B>d|
e/f/g f>e d>c B>c|d/c/B f>B F<B B>c|c>d B/c/d e>c A>c|
[1 B<d c<e d<f e<g|f>g f/e/d/c/ d2 B>c:|2 (3Bcd (3cde (3def (3efg|f>g f/e/d/c/ d2 B>f||
|:b>f g>e f>d e>c|d>B f/e/d/c/ d2 A>f|b>f g>e f>d e>c|d>B f/e/d/c/ d2 B>f|
b>f g>e f>d e>c|d>B f/e/d/c/ d2 (3ABc|(3Bcd (3cde (3def (3efg|1 f>g f/e/d/c/ d2 B>f:|2 f>g f/e/d/c/ d2 B>||

